X: 388
T:Petruno Pile Shareno
S:Jaap Leegwater,from record BHA 10441
O:Bulgaria
F: http://www.youtube.com/watch?v=XKPKshYczaY
L:1/8
M:7/8
Q:1/4=120
%%MIDI gchord fzfffzz
%%MIDI beatstring fpmpmpp
K:DDor
"Dm"A2 BA ^G2 F     | ^G2 FE D3             | A2 BA ^G2 F| ^G2 FE D3|\
D2 EF E2 A,         | D2 EF D3              | D2 GF E2 A,| D2 EF D3 |
%%MIDI gchordoff
"G"d2 d/c/B/A/  ^GB2|"Am"A A ^G/F/E/D/ E E2|\
"G"d2 d/c/B/A/  ^GB2|"Am"A A ^G/F/E/D/ E3  |



